svgs/sharp-regular/tree-deciduous.svg

<svg xmlns="http://www.w3.org/2000/svg" viewBox="0 0 512 512"><!--! Font Awesome Pro 6.6.0 by @fontawesome - https://fontawesome.com License - https://fontawesome.com/license (Commercial License) Copyright 2024 Fonticons, Inc. --><path d="M185.9 103.6l-5.5 23.5L157 121.5c-4.1-1-8.5-1.5-13-1.5c-30.9 0-56 25.1-56 56c0 5.4 .8 10.6 2.2 15.4l5.8 20.1L76.7 220c-17 7.4-28.7 24.4-28.7 44l0 72 184 0 0-16 0-64 0-104 0-24 48 0 0 24 0 104 0 64 0 16 184 0 0-72c0-19.6-11.8-36.5-28.7-44l-19.2-8.4 5.8-20.1c1.4-4.9 2.2-10.1 2.2-15.4c0-30.9-25.1-56-56-56c-4.5 0-8.8 .5-13 1.5l-23.4 5.5-5.5-23.5C318.7 71.7 290.1 48 256 48s-62.7 23.7-70.1 55.6zM232 384L24 384 0 384l0-24 0-96c0-32.3 16-60.9 40.4-78.3c-.3-3.2-.4-6.4-.4-9.7C40 118.6 86.6 72 144 72c.7 0 1.3 0 2 0C164.5 29.6 206.8 0 256 0s91.5 29.6 110 72c.7 0 1.3 0 2 0c57.4 0 104 46.6 104 104c0 3.3-.2 6.5-.4 9.7C496 203.1 512 231.7 512 264l0 96 0 24-24 0-208 0 0 104 0 24-48 0 0-24 0-104z"/></svg>

<svg xmlns="http://www.w3.org/2000/svg" viewBox="0 0 512 512"><!--! Font Awesome Pro 6.4.0 by @fontawesome - https://fontawesome.com License - https://fontawesome.com/license (Commercial License) Copyright 2023 Fonticons, Inc. --><path d="M185.9 103.6l-5.5 23.5L157 121.5c-4.1-1-8.5-1.5-13-1.5c-30.9 0-56 25.1-56 56c0 5.4 .8 10.6 2.2 15.4l5.8 20.1L76.7 220c-17 7.4-28.7 24.4-28.7 44v72H232V320 256 152 128h48v24V256v64 16H464V264c0-19.6-11.8-36.5-28.7-44l-19.2-8.4 5.8-20.1c1.4-4.9 2.2-10.1 2.2-15.4c0-30.9-25.1-56-56-56c-4.5 0-8.8 .5-13 1.5l-23.4 5.5-5.5-23.5C318.7 71.7 290.1 48 256 48s-62.7 23.7-70.1 55.6zM232 384H24 0V360 264c0-32.3 16-60.9 40.4-78.3c-.3-3.2-.4-6.4-.4-9.7C40 118.6 86.6 72 144 72c.7 0 1.3 0 2 0C164.5 29.6 206.8 0 256 0s91.5 29.6 110 72c.7 0 1.3 0 2 0c57.4 0 104 46.6 104 104c0 3.3-.2 6.5-.4 9.7C496 203.1 512 231.7 512 264v96 24H488 280V488v24H232V488 384z"/></svg>
